material/.icons/material/weight-kilogram.svg

<svg xmlns="http://www.w3.org/2000/svg" viewBox="0 0 24 24"><path d="M12 3a4 4 0 014 4c0 .73-.19 1.41-.54 2H18c.95 0 1.75.67 1.95 1.56C21.96 18.57 22 18.78 22 19a2 2 0 01-2 2H4a2 2 0 01-2-2c0-.22.04-.43 2.05-8.44C4.25 9.67 5.05 9 6 9h2.54A3.89 3.89 0 018 7a4 4 0 014-4m0 2a2 2 0 00-2 2 2 2 0 002 2 2 2 0 002-2 2 2 0 00-2-2m-6 6v8h2v-2.5l1 1V19h2v-2l-2-2 2-2v-2H9v1.5l-1 1V11H6m9 0c-1.11 0-2 .89-2 2v4c0 1.11.89 2 2 2h3v-5h-2v3h-1v-4h3v-2h-3z"/></svg>

<?xml version="1.0" encoding="UTF-8"?><!DOCTYPE svg PUBLIC "-//W3C//DTD SVG 1.1//EN" "http://www.w3.org/Graphics/SVG/1.1/DTD/svg11.dtd"><svg xmlns="http://www.w3.org/2000/svg" xmlns:xlink="http://www.w3.org/1999/xlink" version="1.1" id="mdi-weight-kilogram" width="24" height="24" viewBox="0 0 24 24"><path d="M12,3A4,4 0 0,1 16,7C16,7.73 15.81,8.41 15.46,9H18C18.95,9 19.75,9.67 19.95,10.56C21.96,18.57 22,18.78 22,19A2,2 0 0,1 20,21H4A2,2 0 0,1 2,19C2,18.78 2.04,18.57 4.05,10.56C4.25,9.67 5.05,9 6,9H8.54C8.19,8.41 8,7.73 8,7A4,4 0 0,1 12,3M12,5A2,2 0 0,0 10,7A2,2 0 0,0 12,9A2,2 0 0,0 14,7A2,2 0 0,0 12,5M6,11V19H8V16.5L9,17.5V19H11V17L9,15L11,13V11H9V12.5L8,13.5V11H6M15,11C13.89,11 13,11.89 13,13V17C13,18.11 13.89,19 15,19H18V14H16V17H15V13H18V11H15Z" /></svg>
